assets/symbols/mulberry/high.svg

<svg height="850.394" viewBox="0 0 850.394 850.394" width="850.394" xmlns="http://www.w3.org/2000/svg"><path d="m588.11 605.446v-46.958h-127.604v193.96h-145.482v-280.741h417.54v280.741h-144.454zm115.872 110.634v-45.939h-60.229v45.939zm-.254-179.028v-45.938h-60.229v45.938zm-.133 88.678v-45.938h-60.22v45.938zm-93.53-88.678v-45.938h-60.23v45.938zm-113.069-.264v-45.939h-60.229v45.939zm-93.152 178.527v-45.939h-60.229v45.939zm0-89.585v-45.938h-60.229v45.938zm-.51-88.678v-45.938h-60.229v45.938zm329.229-236.85v171.505h-417.54v-171.505zm-28.081 151.598v-45.939h-60.221v45.939zm-.5-86.772v-45.939h-60.229v45.939zm-93.162 86.772v-45.939h-60.22v45.939zm-.5-86.772v-45.939h-60.23v45.939zm-112.559 86.517v-45.939h-60.229v45.939zm-.51-86.772v-45.939h-60.229v45.939zm-93.162 87.027v-45.939h-60.229v45.939zm-.5-86.772v-45.939h-60.229v45.939zm328.974-153.646v88.82h-417.54v-89.434l413.461.614zm-28.835 68.913v-45.939h-60.229v45.939zm-93.663 0v-45.939h-60.23v45.939zm-113.069-.254v-45.939h-60.229v45.939zm-93.662.254v-45.939h-60.229v45.939z" fill="#fff5b4"/><path d="m732.563 127.668v83.714h-4.078l-413.461-.614v-83.1z" fill="#f6cc4b"/><path d="m644.262 405.861h60.221v45.939h-60.221zm-.509 264.28h60.229v45.939h-60.229zm0-351.052h60.229v45.939h-60.229zm-.255 172.024h60.229v45.938h-60.229zm0-256.757h60.229v45.939h-60.229zm-.123 345.436h60.22v45.938h-60.22zm-92.775-173.931h60.221v45.939h-60.221zm-.51-86.772h60.23v45.939h-60.23zm-.255 172.024h60.23v45.938h-60.23zm0-256.757h60.23v45.939h-60.23z" fill="#fff"/><path d="m588.11 605.446v147.002h-127.604v-147.134h3.69z" fill="#34a047"/><path d="m588.11 558.488v46.958l-123.914-.132h-3.69v-46.826zm-150.579-152.882h60.229v45.939h-60.229zm-.51-86.772h60.229v45.939h-60.229zm-.254 172.015h60.229v45.939h-60.229zm0-256.748h60.229v45.939h-60.229zm-92.907 171.76h60.229v45.939h-60.229zm-.246 263.515h60.229v45.939h-60.229zm0-89.584h60.229v45.938h-60.229zm-.255-260.703h60.229v45.939h-60.229zm-.255 172.024h60.229v45.938h-60.229zm0-256.757h60.229v45.939h-60.229z" fill="#fff"/><g fill="none"><g stroke="#231f20"><path d="m732.563 471.707v280.741h-417.539v-624.78h417.539v172.534z" stroke-width="19.822"/><path d="m314.004 300.202h422.646m-423.476-89.434h1.85l413.461.614m-417.539 260.325h422.646m-390.233-152.618h60.229v45.939h-60.229zm93.662-.255h60.229v45.939h-60.229zm113.069.255h60.23v45.939h-60.23zm93.663 0h60.229v45.939h-60.229zm-299.893 86.772h60.229v45.939h-60.229zm93.671-.255h60.229v45.939h-60.229zm113.069.255h60.221v45.939h-60.221zm93.662 0h60.221v45.939h-60.221zm-301.158-171.505h60.229v45.939h-60.229zm93.663-.255h60.229v45.939h-60.229zm113.068.255h60.23v45.939h-60.23zm93.663 0h60.229v45.939h-60.229zm-300.394 256.757h60.229v45.938h-60.229zm.51 88.679h60.229v45.938h-60.229zm299.761 0h60.22v45.938h-60.22zm-299.761 89.584h60.229v45.939h-60.229zm300.139.765h60.229v45.939h-60.229zm-206.986-179.292h60.229v45.939h-60.229zm113.068.264h60.23v45.938h-60.23zm93.663 0h60.229v45.938h-60.229z" stroke-width="13.214"/><path d="m588.11 752.448v.132h-127.604v-194.092h127.604v46.958z" stroke-width="19.822"/><path d="m464.196 605.314 123.914.132h.51" stroke-width="18.376"/></g><path d="m0 0h850.394v850.394h-850.394z"/><path d="m314 642h148" stroke="#231f20" stroke-width="14"/><path d="m522 606v146" stroke="#231f20" stroke-width="19.468"/><path d="m318 552h414" stroke="#231f20" stroke-width="21"/><path d="m590 648h144m-418-262h418" stroke="#231f20" stroke-width="14"/><path d="m72.55 139.649 211.999.221m-83.375-79.932 84.996 80.226-85.141 80.208m-128.479-80.723v615.351m0 0h78.028m-78.028-297.005h78.028m-78.028-163.945h78.028m-78.028 78.41h78.028m-78.028-161.572h78.028m-78.028 387.294h78.028m-78.028-71.283h78.028m-78.028 147.316h78.028" stroke="#000" stroke-linecap="round" stroke-linejoin="round" stroke-width="15.179"/></g></svg>

<svg xmlns="http://www.w3.org/2000/svg" width="850.394" height="850.394" viewBox="0 0 850.394 850.394" overflow="visible"><path d="M588.11 605.446v-46.958H460.506V752.448H315.024V471.707h417.54v280.741H588.11V605.446zM703.982 716.08v-45.939h-60.229v45.939h60.229zm-.254-179.028v-45.938h-60.229v45.938h60.229zm-.133 88.678v-45.938h-60.22v45.938h60.22zm-93.53-88.678v-45.938h-60.23v45.938h60.23zm-113.069-.264v-45.939h-60.229v45.939h60.229zm-93.152 178.527v-45.939h-60.229v45.939h60.229zm0-89.585v-45.938h-60.229v45.938h60.229zm-.51-88.678v-45.938h-60.229v45.938h60.229zM732.563 300.202v171.505h-417.54V300.202h417.54zM704.482 451.8v-45.939h-60.221V451.8h60.221zm-.5-86.772v-45.939h-60.229v45.939h60.229zM610.82 451.8v-45.939H550.6V451.8h60.22zm-.5-86.772v-45.939h-60.23v45.939h60.23zm-112.559 86.517v-45.939h-60.229v45.939h60.229zm-.51-86.772v-45.939h-60.229v45.939h60.229zM404.089 451.8v-45.939H343.86V451.8h60.229zm-.5-86.772v-45.939H343.36v45.939h60.229zM732.563 211.382v88.82h-417.54v-89.434l413.461.614h4.079zm-28.835 68.913v-45.939h-60.229v45.939h60.229zm-93.663 0v-45.939h-60.23v45.939h60.23zm-113.069-.254v-45.939h-60.229v45.939h60.229zm-93.662.254v-45.939h-60.229v45.939h60.229z" fill="#fff5b4"/><path fill="#f6cc4b" d="M732.563 127.668v83.714h-4.078l-413.461-.614v-83.1z"/><path fill="#fff" d="M644.262 405.861h60.221V451.8h-60.221zM643.753 670.141h60.229v45.939h-60.229zM643.753 319.089h60.229v45.939h-60.229zM643.498 491.113h60.229v45.938h-60.229zM643.498 234.356h60.229v45.939h-60.229zM643.375 579.792h60.22v45.938h-60.22zM550.6 405.861h60.221V451.8H550.6zM550.09 319.089h60.23v45.939h-60.23zM549.835 491.113h60.23v45.938h-60.23zM549.835 234.356h60.23v45.939h-60.23z"/><path fill="#34a047" d="M588.11 605.446v147.002H460.506V605.314h3.69z"/><path fill="#fff" d="M588.11 558.488v46.958l-123.914-.132h-3.69v-46.826zM437.531 405.606h60.229v45.939h-60.229zM437.021 318.834h60.229v45.939h-60.229zM436.767 490.849h60.229v45.939h-60.229zM436.767 234.101h60.229v45.939h-60.229zM343.86 405.861h60.229V451.8H343.86zM343.614 669.376h60.229v45.939h-60.229zM343.614 579.792h60.229v45.938h-60.229zM343.359 319.089h60.229v45.939h-60.229zM343.104 491.113h60.229v45.938h-60.229zM343.104 234.356h60.229v45.939h-60.229z"/><g fill="none" stroke="#231f20"><path stroke-width="19.822" d="M732.563 471.707v280.741H315.024v-624.78h417.539v172.534z"/><path stroke-width="13.214" d="M314.004 300.202H736.65M313.174 210.768h1.85l413.461.614M310.946 471.707H733.592M343.359 319.089h60.229v45.939h-60.229zM437.021 318.834h60.229v45.939h-60.229zM550.09 319.089h60.23v45.939h-60.23zM643.753 319.089h60.229v45.939h-60.229zM343.86 405.861h60.229V451.8H343.86zM437.531 405.606h60.229v45.939h-60.229zM550.6 405.861h60.221V451.8H550.6zM644.262 405.861h60.221V451.8h-60.221zM343.104 234.356h60.229v45.939h-60.229zM436.767 234.101h60.229v45.939h-60.229zM549.835 234.356h60.23v45.939h-60.23zM643.498 234.356h60.229v45.939h-60.229zM343.104 491.113h60.229v45.938h-60.229zM343.614 579.792h60.229v45.938h-60.229zM643.375 579.792h60.22v45.938h-60.22zM343.614 669.376h60.229v45.939h-60.229zM643.753 670.141h60.229v45.939h-60.229zM436.767 490.849h60.229v45.939h-60.229zM549.835 491.113h60.23v45.938h-60.23zM643.498 491.113h60.229v45.938h-60.229z"/><path stroke-width="19.822" d="M588.11 752.448v.132H460.506V558.488H588.11v46.958z"/><path stroke-width="18.376" d="M464.196 605.314l123.914.132h.51"/></g><path fill="none" d="M0 0h850.394v850.394H0z"/><path fill="none" stroke="#231f20" stroke-width="14" d="M314 642h148"/><path fill="none" stroke="#231f20" stroke-width="19.468" d="M522 606v146"/><path fill="none" stroke="#231f20" stroke-width="21" d="M318 552h414"/><path fill="none" stroke="#231f20" stroke-width="14" d="M590 648h144M316 386h418"/><path fill="none" stroke="#000" stroke-width="15.179" stroke-linecap="round" stroke-linejoin="round" d="M72.55 139.649l211.999.221M201.174 59.938l84.996 80.226-85.141 80.208M72.55 139.649V755M72.55 755h78.028M72.55 457.995h78.028M72.55 294.05h78.028M72.55 372.46h78.028M72.55 210.888h78.028M72.55 598.182h78.028M72.55 526.899h78.028M72.55 674.215h78.028"/></svg>
